X: 41198
T: Triumph, The
R: barndance
M: 4/4
K: Gmajor
ge|d2BG c2AF|G2gf efge|d2BG c2AF|GBAF GBge|
dBGB cAFA|Ggfg efge|dBGB cAFA|GBAF G2||
GB|A2Ac B2d2|A2Ac B2d2|A2Ac Bdge|dcBA G2GB|
Ad^cd Bd^cd|Ad^cd Bd^cd|AGAc Bdge|dcBA G2||
GA|B2Bd edcB|A2AB dcBA|B2Bd efge|dcBA G2GA|
BABd edcB|AGAB dcBA|BGBd efge|dcBA G2||

